img/Phone.svg

<svg width="100" height="83" viewBox="0 0 100 83" fill="none" xmlns="http://www.w3.org/2000/svg">
<path d="M26.1016 82.207C11.6861 82.207 1.14441e-05 70.5198 1.14441e-05 56.103C1.14441e-05 41.6862 11.6861 29.999 26.1016 29.999C40.5171 29.999 52.2032 41.6862 52.2032 56.103C52.2032 70.5198 40.5171 82.207 26.1016 82.207Z" fill="#F0F0F0"/>
<path d="M37.2947 51.0458L48.9482 39.5396C49.5155 38.975 50.1886 38.528 50.929 38.2241C51.6693 37.9202 52.4623 37.7654 53.2626 37.7686H53.3036C54.1099 37.7709 54.9078 37.9332 55.651 38.246C56.3942 38.5587 57.068 39.0158 57.6334 39.5908C60.2391 42.228 61.7211 45.7729 61.7678 49.4802C61.8146 53.1875 60.4225 56.7685 57.8841 59.4707C57.7613 59.6038 57.6334 59.7318 57.5054 59.8597C56.7967 60.5643 56.0143 61.1906 55.1716 61.7279C52.8678 63.2166 50.1813 64.0043 47.4384 63.9954H47.3514C45.4688 63.989 43.6061 63.6093 41.8711 62.8784C40.1361 62.1474 38.5632 61.0797 37.2435 59.7369C36.0999 58.5765 35.463 57.01 35.4726 55.3808C35.4822 53.7515 36.1375 52.1926 37.2947 51.0458ZM37.9702 59.0152C40.1339 61.195 42.9827 62.5624 46.0368 62.8869C49.0908 63.2113 52.1633 62.473 54.7366 60.7964C55.4726 60.3092 56.1599 59.7522 56.7889 59.1329C59.2999 56.6527 60.723 53.2765 60.7451 49.7471C60.7671 46.2176 59.3864 42.8239 56.9066 40.3125C56.4352 39.8321 55.873 39.4503 55.2527 39.1893C54.6324 38.9283 53.9663 38.7933 53.2933 38.7923H53.2626C52.5963 38.79 51.9361 38.9189 51.3196 39.1719C50.7031 39.4248 50.1425 39.7967 49.6698 40.2664L38.0163 51.7777C37.0515 52.7319 36.5049 54.03 36.4962 55.3869C36.4876 56.7439 37.0177 58.0488 37.9702 59.0152Z" fill="#3F3D56"/>
<path d="M75.5308 13.2823L87.1844 1.77099C88.3315 0.632812 89.883 -0.00404998 91.4988 1.93822e-05H91.5347C92.3421 0.0032675 93.1409 0.166407 93.8849 0.480028C94.6289 0.793649 95.3034 1.25154 95.8696 1.82727C98.0237 4.01523 99.4205 6.8357 99.8552 9.87533C100.29 12.915 99.7397 16.0139 98.2852 18.7181L98.2801 18.7232C97.6801 19.8292 96.9348 20.8501 96.0641 21.7584C95.9668 21.871 95.8542 21.9836 95.7416 22.0962C93.0655 24.7529 89.4453 26.2401 85.6746 26.2319H85.5825C83.6996 26.2241 81.8369 25.8432 80.102 25.1114C78.3671 24.3796 76.7943 23.3113 75.4745 21.9683C74.9079 21.3943 74.4598 20.7143 74.156 19.9671C73.8522 19.2199 73.6985 18.4202 73.7037 17.6136C73.7089 16.807 73.873 16.0094 74.1865 15.2662C74.5 14.523 74.9568 13.8489 75.5308 13.2823V13.2823ZM76.2064 21.2517C77.4314 22.498 78.8911 23.4893 80.5013 24.1684C82.1114 24.8475 83.8401 25.2009 85.5876 25.2083H85.6746C88.2989 25.2073 90.8644 24.4302 93.0483 22.9749C95.2322 21.5195 96.937 19.4509 97.9484 17.0291C98.9599 14.6072 99.2327 11.9404 98.7325 9.36395C98.2324 6.78749 96.9817 4.41645 95.1377 2.549C94.1836 1.58426 92.8856 1.03756 91.5288 1.02892C90.1721 1.02029 88.8673 1.5504 87.9009 2.50292L76.2473 14.0091C75.2832 14.965 74.7375 16.2643 74.7298 17.622C74.7222 18.9797 75.2532 20.285 76.2064 21.2517L76.2064 21.2517Z" fill="#3F3D56"/>
<path d="M36.5497 54.6636L49.3974 41.9732C50.2399 41.1429 51.3773 40.6807 52.5601 40.6881C53.7429 40.6954 54.8744 41.1717 55.7065 42.0124C56.7475 43.0641 57.5709 44.3106 58.1298 45.6808C58.6887 47.051 58.9721 48.5179 58.9637 49.9977C58.9554 51.4775 58.6555 52.9411 58.0811 54.3049C57.5068 55.6687 56.6693 56.9059 55.6165 57.9457C54.5638 58.9856 53.3164 59.8078 51.9457 60.3652C50.575 60.9226 49.1079 61.2044 47.6283 61.1944C46.1486 61.1844 44.6855 60.8828 43.3224 60.3069C41.9594 59.731 40.7233 58.892 39.6847 57.838L36.5497 54.6636Z" fill="#69C5D7"/>
<path d="M74.7837 16.898L87.6314 4.20758C88.4738 3.37729 89.6113 2.91511 90.794 2.92245C91.9768 2.92979 93.1084 3.40605 93.9405 4.24674C94.9814 5.29844 95.8049 6.54502 96.3638 7.91521C96.9227 9.28539 97.2061 10.7523 97.1977 12.2321C97.1893 13.7119 96.8894 15.1755 96.3151 16.5393C95.7407 17.9031 94.9032 19.1403 93.8505 20.1801C92.7977 21.22 91.5503 22.0422 90.1797 22.5996C88.809 23.157 87.3419 23.4388 85.8622 23.4288C84.3826 23.4188 82.9194 23.1172 81.5564 22.5413C80.1934 21.9654 78.9573 21.1264 77.9187 20.0724L74.7837 16.898Z" fill="#69C5D7"/>
<path d="M50.6679 62.5677L50.9749 63.3764C52.4182 62.8288 53.8171 62.2794 55.1717 61.7283C79.1646 51.9368 90.6186 40.4766 98.2802 18.7233L98.2853 18.7182C98.6487 17.6945 99.0018 16.6469 99.3447 15.5755L98.5361 15.3145C98.2657 16.3449 97.8704 17.3384 97.359 18.2729C96.9393 19.4655 96.5077 20.6274 96.0641 21.7585C88.8631 40.1183 78.2434 50.6111 57.8842 59.4711C56.8606 59.9164 55.8114 60.3583 54.7366 60.7968C53.4886 61.61 52.1134 62.2085 50.6679 62.5677Z" fill="#3F3D56"/>
<path d="M87.3979 25.3003L88.1174 26.0288L61.5358 52.2852L60.8163 51.5567L87.3979 25.3003Z" fill="#3F3D56"/>
</svg>

<svg width="100" height="83" fill="none" xmlns="http://www.w3.org/2000/svg"><path d="M26.102 82.207C11.686 82.207 0 70.52 0 56.103s11.686-26.104 26.102-26.104c14.415 0 26.101 11.687 26.101 26.104S40.517 82.207 26.102 82.207z" fill="#F0F0F0"/><path d="M37.295 51.046 48.948 39.54a6.081 6.081 0 0 1 4.315-1.771h.04a6.096 6.096 0 0 1 4.33 1.822 14.327 14.327 0 0 1-.128 20.269 13.938 13.938 0 0 1-2.333 1.868 14.164 14.164 0 0 1-7.734 2.267h-.087a14.241 14.241 0 0 1-10.108-4.258 6.154 6.154 0 0 1 .052-8.691zm.675 7.97a13.354 13.354 0 0 0 16.767 1.78 13.717 13.717 0 0 0 2.052-1.663 13.31 13.31 0 0 0 .118-18.82 5.074 5.074 0 0 0-3.614-1.52h-.03a5.071 5.071 0 0 0-3.593 1.473L38.016 51.778a5.122 5.122 0 0 0-.046 7.237zM75.53 13.282 87.185 1.771A6.104 6.104 0 0 1 91.5 0h.036a6.114 6.114 0 0 1 4.335 1.827 14.372 14.372 0 0 1 2.415 16.891l-.005.005a14.107 14.107 0 0 1-2.216 3.035c-.097.113-.21.226-.322.338a14.245 14.245 0 0 1-10.067 4.136h-.093a14.253 14.253 0 0 1-10.107-4.264 6.142 6.142 0 0 1 .056-8.686zm.676 7.97a13.232 13.232 0 0 0 9.382 3.956h.087A13.306 13.306 0 0 0 95.138 2.55a5.122 5.122 0 0 0-7.237-.046L76.247 14.009a5.129 5.129 0 0 0-.04 7.243z" fill="#3F3D56"/><path d="m36.55 54.664 12.847-12.69a4.466 4.466 0 0 1 6.31.038 11.26 11.26 0 1 1-16.022 15.826l-3.135-3.174zM74.784 16.898 87.63 4.208a4.466 4.466 0 0 1 6.31.039A11.261 11.261 0 0 1 81.555 22.54a11.26 11.26 0 0 1-3.637-2.469l-3.135-3.174z" fill="#69C5D7"/><path d="m50.668 62.568.307.808a189.894 189.894 0 0 0 4.197-1.648c23.993-9.791 35.447-21.251 43.108-43.005l.005-.005c.364-1.023.717-2.071 1.06-3.143l-.809-.26a13.077 13.077 0 0 1-1.177 2.958 105.17 105.17 0 0 1-1.295 3.486c-7.2 18.36-17.82 28.852-38.18 37.712-1.023.445-2.073.887-3.147 1.326a13.35 13.35 0 0 1-4.07 1.77z" fill="#3F3D56"/><path d="m87.398 25.3.72.729-26.582 26.256-.72-.728L87.398 25.3z" fill="#3F3D56"/></svg>
